icons/svg/numeric-2-box-multiple-outline.svg

<svg xmlns="http://www.w3.org/2000/svg" version="1.1" baseProfile="full" width="24" height="24" viewBox="0 0 24.00 24.00" xml:space="preserve"><path fill="#000" fill-opacity="1" stroke-linejoin="round" d="M17 13h-4v-2h2c1.1 0 2-.89 2-2V7c0-1.11-.9-2-2-2h-4v2h4v2h-2c-1.1 0-2 .89-2 2v4h6m4 2H7V3h14m0-2H7c-1.1 0-2 .9-2 2v14c0 1.1.9 2 2 2h14c1.1 0 2-.9 2-2V3c0-1.1-.9-2-2-2zM3 5H1v16c0 1.1.9 2 2 2h16v-2H3V5z"/></svg>

﻿<?xml version="1.0" encoding="utf-8"?>
<!DOCTYPE svg PUBLIC "-//W3C//DTD SVG 1.1//EN" "http://www.w3.org/Graphics/SVG/1.1/DTD/svg11.dtd">
<svg xmlns="http://www.w3.org/2000/svg" xmlns:xlink="http://www.w3.org/1999/xlink" version="1.1" baseProfile="full" width="24" height="24" viewBox="0 0 24.00 24.00" enable-background="new 0 0 24.00 24.00" xml:space="preserve">
	<path fill="#000000" fill-opacity="1" stroke-linejoin="round" d="M 17,13L 13,13L 13,11L 15,11C 16.1,11 17,10.11 17,9L 17,7C 17,5.89 16.1,5 15,5L 11,5L 11,7L 15,7L 15,9L 13,9C 11.9,9 11,9.89 11,11L 11,15L 17,15M 21,17L 7,17L 7,3L 21,3M 21,1L 7,1C 5.9,1 5,1.9 5,3L 5,17C 5,18.1 5.9,19 7,19L 21,19C 22.1,19 23,18.1 23,17L 23,3C 23,1.9 22.1,1 21,1 Z M 3,5L 1,5L 1,21C 1,22.1 1.9,23 3,23L 19,23L 19,21L 3,21L 3,5 Z "/>
</svg>
